X:13937
T:Rakesh
R:reel
C:Paul S.Cranford
O:20th Century Cape Breton
D:The Lighthouse, Cranford Publications
B:The Lighthouse Collection, ISBN 0-9691181-5-5
H:Composed for Rakesh Jain, Halifax
N:Contacts ...
N:..... Cranford Publications <http://www.cranfordpub.com>
Z:This abc transcription is for personal use only,
Z:provided this notice remains attached.
Z:Used by permission of the composer and publisher.
Z:Paul Stewart Cranford 
Q:300
L:1/8
M:C|
K:D
=46G|A2 GE FDDF|ABdF A2 FG|A2 GE FAdf|ecdF E2 FG|!
A2 GE FDDF|ABdF A2 FG|ABdf ecdf|ecdF E2||!
=46G|ABdf efdf|aefd edBd|ABdf efde|dABF E2 FG|!
ABdf efdf|aefd edBb|aefd edBe|dABF E2|]!
